src/assets/images/icons/More.svg

<svg xmlns="http://www.w3.org/2000/svg" width="16" height="16" viewBox="0 0 16 16"><path fill-rule="evenodd" d="M8 4c1.1 0 2-.9 2-2s-.9-2-2-2-2 .9-2 2 .9 2 2 2zm0 2c-1.1 0-2 .9-2 2s.9 2 2 2 2-.9 2-2-.9-2-2-2zm0 6c-1.1 0-2 .9-2 2s.9 2 2 2 2-.9 2-2-.9-2-2-2z"/></svg>

<svg xmlns="http://www.w3.org/2000/svg" width="16" height="16" viewBox="0 0 16 16">
  <path fill="#222222" fill-rule="evenodd" d="M8,4 C9.1,4 10,3.1 10,2 C10,0.9 9.1,0 8,0 C6.9,0 6,0.9 6,2 C6,3.1 6.9,4 8,4 L8,4 Z M8,6 C6.9,6 6,6.9 6,8 C6,9.1 6.9,10 8,10 C9.1,10 10,9.1 10,8 C10,6.9 9.1,6 8,6 L8,6 Z M8,12 C6.9,12 6,12.9 6,14 C6,15.1 6.9,16 8,16 C9.1,16 10,15.1 10,14 C10,12.9 9.1,12 8,12 L8,12 Z"/>
</svg>
